X:1
T:A Wondrous Word
T:A Wondrous Word
T:Joseph Lincoln Hall
T:Elsie Duncan Yale, 1915
T:Public Domain Courtesy of the Cyber Hymnal™
T:Public Domain Courtesy of the Cyber Hymnal™
C:Joseph Lincoln Hall
Z:Public Domain
Z:Courtesy of the Cyber Hymnal™
%%score ( 1 2 ) ( 3 4 )
L:1/8
Q:1/4=93
M:3/4
K:C
V:1 treble 
V:2 treble 
V:3 bass 
V:4 bass 
V:1
"^Quietly and slowly" [CE]2 | [CE][CE] [CE]2 [CG]2 | [B,F][B,F] [B,F]2 [B,F]2 | %3
w: 1.~As|mid- night hush so|calm and still Was|
w: 2.~Bright|star beams crowned the|dream- ing plain, The|
w: 3.~O|ho- ly night! O|night di- vine! What|
 [DF][DF] [DF]2 [FA]2 | [EG][EG] [EG]2 [EG]2 | [EG][EG] [EG]2 [D^G]2 | [CB][CA] [FA]2 [FA]2 | %7
w: brood- ing o’er the|vale and hill, The|shep- herds ’neath the|star- ry night Were|
w: night wind breathed a|soft re- frain; O’er|Da- vid’s town dark|sha- dows crept, As|
w: ten- der joy, what|peace is thine! For|’mid thy si- lence|ser- aphs come To|
 [^FA][FA] [FB]2 [Fc]2 | [Fd][FG] !fermata![FG]2 ||[M:4/4][Q:1/4=100]"^Much faster" GG | %10
w: watch- ing o’er their|flocks by night.||
w: shep- herds still their|vi- gil kept.|But a|
w: her- ald One from|heav’n- ly home.||
 G2 G2 G2 [Fd][Fd] | [Fd]2 [E^c]2 [Fd]2 dd | d2 d2 d2 [Bf][Bf] | [Bf]2 [^Ae]2 [Af]2 GG | %14
w: ||||
w: won- drous word, Thro’ *|* * * the si-|lence heard, It was *|* * * “Glo- ry|
w: ||||
 G2 G2 A2 A2 | B2 B2 c2 c2 | (z2 [Bf][Bf] [Bf]2 [^Ae]2 | [Bf]2 [^Ae]2 !fermata![Bf]2) z2 || %18
w: ||||
w: be to God, to|God on high!” Glo-|||
w: ||||
[M:12/8]"^Refrain" z"^Unison" [EG][EG] [EGc]BA z [CE][CE] [CEG]^FG | %19
w: |
w: * * ry to God, * * be to God|
w: |
 (z [DF][DF]) (z [F,A,][F,A,]) (z [A,C][A,C][A,C][A,C][A,C]) | %20
w: |
w: |
w: |
 z [FB][FB] [FBd]^cd (z [DFG][DFG] [DFGB])AG | z [EG][EG] (z [GB][GB]) (z [Gc][Gc][Gc][Gc][Gc]) | %22
w: ||
w: * * * on high, * * * Peace un-||
w: ||
 e3- ([E=G][EG][EGe]) [EGB][EGd] c3 ([EA][EA] ^c3) ([EA][EA]) | %23
w: |
w: * * * * to earth, un- to * * earth *|
w: |
 d3- ([DA][DA][DAd]) [DFA][DFAc] B3- ([DF][DF][DFB])[DFA][EFG] | %24
w: |
w: * * * * is nigh; Glo- ry, * * to God,|
w: |
"^Parts" [Ge]3 [Ge][Gd][Gc] ([Ff]3 [Af])[Ae][Ad] | [Gc]3 [FB]3 !fermata![Ec]3 z |] %26
w: ||
w: * * list the re- * ply! It|is glo- ry|
w: ||
V:2
 x2 | x6 | x6 | x6 | x6 | x6 | x6 | x6 | x4 ||[M:4/4] GG | G2 G2 G2 x2 | x6 dd | d2 d2 d2 x2 | %13
 x6 GG | G2 G2 A2 A2 | B2 B2 c2 c2 | d6 x2 | x8 ||[M:12/8] c3- x2 G3- x4 | A3 D3 F6 | %20
 d3- x2 B3- x4 | c3 d3 e6 | [E^G] x2 [EA] [EA] x13 | [DA] x2 [DF] x12 | x12 | x10 |] %26
V:3
 [C,G,]2 | [C,G,][C,G,] [C,G,]2 [E,G,]2 | [D,G,][D,G,] [D,G,]2 [D,G,]2 | %3
 [G,B,][G,B,] [G,B,]2 [G,B,]2 | [C,C][C,C] [C,C]2 [C,C]2 | [C,C][C,C] [C,C]2 [E,B,]2 | %6
 [F,A,][F,A,] [F,C]2 [F,C]2 | [D,C][D,C] [D,B,]2 [D,A,]2 | [G,B,][G,B,] !fermata![G,B,]2 || %9
[M:4/4] G,G, | G,2 G,2 G,2 [G,B,][G,B,] | [G,B,]2 [G,^A,]2 [G,B,]2 DD | D2 D2 D2 [G,D][G,D] | %13
 [G,D]2 [G,^C]2 [G,D]2 G,G, | G,2 G,2 A,2 A,2 | B,2 B,2 C2 C2 | (z2 [G,D][G,D] [G,D]2 [G,^C]2 | %17
 [G,D]2 [G,^C]2 !fermata![G,D]2) z2 ||[M:12/8] C3 CB,A, G,3 G,^F,G, | A,3 D,3 D,6 | %20
 D3- D^CD B,3- B,A,G, | C3 D3 E6 | [E,,E,]3 [^G,,^G,]3 [A,,A,]3 [=G,,=G,]3 x6 | %23
 [^F,,^F,]3 [D,,D,]3 [G,,G,]3 [B,,B,]3 x4 | C3 [_B,C][B,C][B,C] ([A,C]3 [F,C])[D,F][D,F] | %25
 [G,E]3 [G,D]3 !fermata![C,C]3 z |] %26
V:4
 x2 | x6 | x6 | x6 | x6 | x6 | x6 | x6 | x4 ||[M:4/4] G,G, | G,2 G,2 G,2 x2 | x6 DD | D2 D2 D2 x2 | %13
 x6 G,G, | G,2 G,2 A,2 A,2 | B,2 B,2 C2 C2 | D6 x2 | x8 ||[M:12/8] x12 | x12 | x12 | x12 | x18 | %23
 x16 | C3 x9 | x10 |] %26

